X:1
T:Title
%%score { ( 1 4 ) | ( 2 3 ) }
L:1/8
M:4/4
K:Bb
V:1 treble nm="Grand Piano"
V:4 treble 
V:2 bass 
V:3 bass 
V:1
 z4 z2[Q:1/4=100] [DF]>[DF] | [DB]2 [DB]>[DB] [DB]2 [FB]>A | G2 B2 F2 [FB]>c | d2 d>d d2 [FB]2 | %4
 d2 c2 c2 d>c | [DB]2 [DB]>[DB] [DB]2 [B,D]2 | [DF]2 [DF]2 [DF]2 [FB]>c | d2 d>d d2 [FB]2 | %8
 [Fd]2 [Ec]2 [DB]4 | [Ge]>G G>G G4 | d>[DF] [DF]>[DF] [DF]2 [FB]>[Fc] | [Fd]3 [Fc] [FB]2 [Fd]2 | %12
 [Fc]6 z2 | [Fd]>[Fd] [Fd]>[Fd] [Fd]2 [Fc]>[FB] |[M:3/4] [EG]>[FA] [GB]>[EG] [DF]2 | %15
[M:1/4] [FB]>c |[M:4/4] d4 d2 c2 |[M:3/4] [DB]6 | %18
[M:1/4] [FB]>c[Q:1/4=98][Q:1/4=97][Q:1/4=95][Q:1/4=94][Q:1/4=92][Q:1/4=91][Q:1/4=89][Q:1/4=88][Q:1/4=86][Q:1/4=84][Q:1/4=83][Q:1/4=81][Q:1/4=80][Q:1/4=78][Q:1/4=77] | %19
[M:4/4] d4 d2 c2 |[M:3/4] [DB]6 |] %21
V:2
 z4 z2 [B,,B,]>[B,,B,] | z4 z2 [D,B,]2 | [E,B,E]2 [G,B,E]2 [B,D]2 [D,B,]>[K:treble][F,A,F] | %3
 [B,F]2 [B,F]>[B,F] [B,F]2[K:bass] [D,B,]2 | [F,B,F]2 [F,A,F]2 [F,A,F]2 [F,A,F]>[F,A,E] | %5
 [B,,B,]2 [B,,F,]>[B,,F,] [B,,B,]2 [B,,F,]2 | [B,,B,]2 [B,,B,]2 [B,,B,]2 [D,B,]>[K:treble][F,A,F] | %7
 [B,F]2 [B,F]>[B,F] [B,F]2[K:bass] [D,B,]2 | [F,B,]2 [F,A,]2 [B,,B,]4 | %9
 [E,B,]>[E,B,E] [E,B,E]>[E,B,E] [E,B,E]4 | [B,F]>[B,,B,] [B,,B,]>[B,,B,] [B,,B,]2 [D,B,]>[C,A,] | %11
 [B,,B,]3 [C,A,] [D,B,]2 [B,,B,]2 | [F,A,]4 F,E, D,>[C,A,] | %13
 [B,,B,]>[B,,B,] [B,,B,]>[B,,B,] [B,,B,]2 [C,A,]>[D,B,] | %14
[M:3/4] [E,B,]>[E,B,] [E,B,]>[E,B,] [B,,B,]2 |[M:1/4] [D,B,]>[K:treble][F,A,F] | %16
[M:4/4] [B,F]4[K:bass] [F,B,F]2 [F,A,E]2 |[M:3/4] [B,,B,]6 |[M:1/4] [D,B,]>[K:treble][F,A,F] | %19
[M:4/4] [B,F]4[K:bass] [F,B,F]2 [F,A,E]2 |[M:3/4] [B,,B,]6 |] %21
V:3
 x8 | [B,,B,]2 [B,,F,]>[B,,F,] [B,,B,]2 z z/ F/ | x15/2[K:treble] x/ | x6[K:bass] x2 | x8 | x8 | %6
 x15/2[K:treble] x/ | x6[K:bass] x2 | x8 | x8 | x8 | x8 | x8 | x8 |[M:3/4] x6 | %15
[M:1/4] x3/2[K:treble] x/ |[M:4/4] x4[K:bass] x4 |[M:3/4] x6 |[M:1/4] x3/2[K:treble] x/ | %19
[M:4/4] x4[K:bass] x4 |[M:3/4] x6 |] %21
V:4
 x8 | x8 | x8 | x8 | x8 | x8 | x8 | x8 | x8 | x8 | x8 | x8 | z4 A,2 [B,FB]>[Fc] | x8 |[M:3/4] x6 | %15
[M:1/4] x2 |[M:4/4] x8 |[M:3/4] x6 |[M:1/4] x2 |[M:4/4] x8 |[M:3/4] x6 |] %21

